svgs/regular/suitcase.svg

<svg xmlns="http://www.w3.org/2000/svg" viewBox="0 0 512 512"><!--! Font Awesome Pro 6.6.0 by @fontawesome - https://fontawesome.com License - https://fontawesome.com/license (Commercial License) Copyright 2024 Fonticons, Inc. --><path d="M176 56l0 40 160 0 0-40c0-4.4-3.6-8-8-8L184 48c-4.4 0-8 3.6-8 8zM128 96l0-40c0-30.9 25.1-56 56-56L328 0c30.9 0 56 25.1 56 56l0 40 64 0c35.3 0 64 28.7 64 64l0 256c0 35.3-28.7 64-64 64L64 480c-35.3 0-64-28.7-64-64L0 160c0-35.3 28.7-64 64-64l64 0zm232 48l-208 0-8 0 0 288 224 0 0-288-8 0zM64 144c-8.8 0-16 7.2-16 16l0 256c0 8.8 7.2 16 16 16l32 0 0-288-32 0zM448 432c8.8 0 16-7.2 16-16l0-256c0-8.8-7.2-16-16-16l-32 0 0 288 32 0z"/></svg>

<svg xmlns="http://www.w3.org/2000/svg" viewBox="0 0 512 512"><!--! Font Awesome Pro 6.4.2 by @fontawesome - https://fontawesome.com License - https://fontawesome.com/license (Commercial License) Copyright 2023 Fonticons, Inc. --><path d="M176 56V96H336V56c0-4.4-3.6-8-8-8H184c-4.4 0-8 3.6-8 8zM128 96V56c0-30.9 25.1-56 56-56H328c30.9 0 56 25.1 56 56V96h64c35.3 0 64 28.7 64 64V416c0 35.3-28.7 64-64 64H64c-35.3 0-64-28.7-64-64V160c0-35.3 28.7-64 64-64h64zm232 48H152h-8V432H368V144h-8zM64 144c-8.8 0-16 7.2-16 16V416c0 8.8 7.2 16 16 16H96V144H64zM448 432c8.8 0 16-7.2 16-16V160c0-8.8-7.2-16-16-16H416V432h32z"/></svg>
